!!!!SEGMENT: pl-cz--i-155--002-003_anonim--partita-es-menuetto.krn
!!!cenid: 18xx:2500
!!!COM: Anonim
!!!COM-rismid: pe30004985
!!!CDT:
!!!CNT:
!!!OTL: Partita Es - Menuetto
!!!PDT:
!!!AGN: Secular; Partita
!!!SMS-siglum: PL-CZ
!!!SMS-shelfmark: I-155
!!!SMS-shelfwork: 002-003 M
!!!SMS-variant:
!!!SMS-altvar:
!!!NIFC-rismid: 1001012509
!!!URL-scan: http://repozytorium.nifc.pl/skany/pl-cz-nut--i-155
!!!ONB-nifc: UWAGA: Parthia 2 (002), części: 1. Allegro, 2. Adagio, 3. Menuetto, 4. Rondo. Uwaga: 5 partii
**kern	**kern	**kern	**kern	**kern
*part5	*part4	*part3	*part2	*part1
*staff5	*staff4	*staff3	*staff2	*staff1
*I"Corno Secondo	*I"Corno Primo.	*I"Fagotto	*I"Clarinetto Secondo	*I"Clarinetto Primo
*I'cor 2	*I'cor 1	*I'fg	*I'cl 2	*I'cl 1
*>[A,A,B,B,C,C,D,D,A,A]	*>[A,A,B,B,C,C,D,D,A,A]	*>[A,A,B,B,C,C,D,D,A,A]	*>[A,A,B,B,C,C,D,D,A,A]	*>[A,A,B,B,C,C,D,D,A,A]
*>A	*>A	*>A	*>A	*>A
*clefG2	*clefG2	*clefF4	*clefG2	*clefG2
*ITrd5c9	*ITrd5c9	*	*ITrd1c2	*ITrd1c2
*k[b-e-a-]	*k[b-e-a-]	*k[b-e-a-]	*k[b-e-a-]	*k[b-e-a-]
*E-:	*E-:	*E-:	*E-:	*E-:
*M3/4	*M3/4	*M3/4	*M3/4	*M3/4
*all\right	*all\right	*all\right	*all\right	*all\right
!	!	!LO:TX:t=P:problem:kolejność znaków BB- E- A-	!	!
4r	4r	4r	4r	(8bb-\L
.	.	.	.	8gg\J)
=1	=1	=1	=1	=1
4r	4r	4r	4r	(8ee-\L
.	.	.	.	8b-\)
4r	4r	4r	4r	(8g\
.	.	.	.	8b-\)
4e-\	4g\	4E-\	8g\L	(8ee-\
.	.	.	8ee-\J	8gg\J)
=2	=2	=2	=2	=2
4e-\	4g\	4B-\	4ee-\	4gg\
4B-/	4f\	4BB-/	4dd\	4ff\
4r	4r	4r	4r	8bb-\L
.	.	.	.	8gg\J
=3	=3	=3	=3	=3
4r	4r	4r	4r	8ee-\L
.	.	.	.	8b-\
4r	4r	4r	4r	8g\
.	.	.	.	8b-\
4e-\	4g\	4E-\	8g\L	8ee-\
.	.	.	8ee-\J	8gg\J
=4	=4	=4	=4	=4
4e-\	4g\	4B-\	4ee-\	4gg\
4B-/	4f\	4BB-/	4dd\	4ff\
4r	4r	4r	4r	8bb-\L
.	.	.	.	8gg\J
!	!	!	!	!LO:LB:g=original
=5	=5	=5	=5	=5
4G/	4e-\	4E-\	4b-\	4ee-\
4G/	4e-\	4E-\	4b-\	4r
4r	4r	4r	4r	8ccc\L
.	.	.	.	8aa-\J
!	!LO:LB:g=original	!	!	!
=6	=6	=6	=6	=6
4B-/	4f\	4D\	4b-\	4ff\
4B-/	4f\	4D\	4b-\	4r
4r	4r	4r	4r	8aa-\L
.	.	.	.	8ff\J
=7	=7	=7	=7	=7
.	.	.	.	8qqee-/
4B-/	4f\	4B-\	4a-/	4dd\
4B-/	4f\	4BB-/	4a-/	8dd\L
.	.	.	.	8b-\
4B-/	4f\	4BB-/	4a-/	8cc\
.	.	.	.	8dd\J
!	!LO:LB:g=original	!LO:LB:g=original	!	!
=8	=8	=8	=8	=8
4G;/	4e-\	4EE-;/	2g/	4ee-\
!LO:TX:b:i:t=fin	!	!LO:TX:b:i:t=fi	!	!
4r	4r	4r	.	4r
!	!	!	!LO:LB:g=original	!
=:|!|:	=:|!|:	=:|!|:	=:|!|:	=:|!|:
*>B	*>B	*>B	*>B	*>B
4E-/	4g\	4r	4r	4r
=9	=9	=9	=9	=9
!	!	!	!LO:N:vis=0	!LO:N:vis=0
4E-/	8g\L	4EE-/	1.r	1.r
.	8a-\J	.	.	.
8G/L	4b-\	4E-\	.	.
8B-/J	.	.	.	.
8e-\L	4b-\	4E-\	.	.
8g\J	.	.	.	.
=10	=10	=10	=10	=10
*2\right	*	*	*	*
2g\	4b-\	4EE-/	.	.
.	4ee-\	4E-\	.	.
4e-\	4g\	4E-\	.	.
=11	=11	=11	=11	=11
4f\	8a-\L	4D\	4f/	4a-/
.	8f\	.	.	.
4B-/	8d\	4BB-\	4f/	4a-/
.	8f\	.	.	.
4B-/	8a-\	4E-\	4f/	4a-/
.	8f\J	.	.	.
=12	=12	=12	=12	=12
4e-\	4g\	4E-\	4e-/	4g/
4r	4r	4EE-/	4r	4r
4r	8g\L	4r	4r	4r
.	8a-\J	.	.	.
!LO:LB:g=original	!	!	!	!LO:LB:g=original
=13	=13	=13	=13	=13
4E-/	4g\	4EE-/	2.r	2.r
8G/L	4b-\	4E-\	.	.
8B-/J	.	.	.	.
8e-\L	4b-\	4E-\	.	.
8g\J	.	.	.	.
!	!LO:LB:g=original	!	!	!
=14	=14	=14	=14	=14
2g\	4b-\	4EE-/	4r	4r
.	4ee-\	4E-\	4r	4r
4e-\	4g\	4E-\	4f/	4g/
!	!	!LO:LB:g=original	!	!
=15	=15	=15	=15	=15
4f\	4g\	8BB-\L	4e-/	4g/
.	.	8B-\	.	.
!	!	!	!	!LO:TX:a:t=P:problem:mixedbeam
4B-/	4f\	8F\	8d/L	8f/L
.	.	8B-\	8f/	8dd\
4BB-/	4f\	8D\	8d/	8b-\
.	.	8F\J	8f/J	8dd\J
=16	=16	=16	=16	=16
4BB-/	4f\	4BB-/	4d/	4b-\
4r	4r	4r	4r	4r
4r	4r	4r	4r	8bb-\L
.	.	.	.	8gg\J
=17	=17	=17	=17	=17
!LO:TX:a:i:t=Da Capo	!	!LO:TX:a:i:t=Da Capo	!	!
4ryy	4r	4ryy	4r	8ee-\L
.	.	.	.	8b-\
4ryy	4r	4ryy	4r	8g\
.	.	.	.	8b-\
4e-\yy	4g\	4E-\yy	8g\L	8ee-\
.	.	.	8ee-\J	8gg\J
=18	=18	=18	=18	=18
4e-\yy	4g\	4B-\yy	4ee-\	4gg\
4B-/yy	4f\	4BB-/yy	4dd\	4ff\
4ryy	4r	4ryy	4r	8bb-\L
.	.	.	.	8gg\J
!	!	!	!LO:LB:g=original	!
=19	=19	=19	=19	=19
4ryy	4r	4ryy	4r	8ee-\L
.	.	.	.	8b-\
4ryy	4r	4ryy	4r	8g\
.	.	.	.	8b-\
4e-\yy	4g\	4E-\yy	8g\L	8ee-\
.	.	.	8ee-\J	8gg\J
!	!	!	!	!LO:LB:g=original
=20	=20	=20	=20	=20
4e-\yy	4g\	4B-\yy	4ee-\	4gg\
4B-/yy	4f\	4BB-/yy	4dd\	4ff\
4ryy	4r	4ryy	4r	8bb-\L
.	.	.	.	8gg\J
=21	=21	=21	=21	=21
4G/yy	4e-\	4E-\yy	4b-\	4ee-\
4G/yy	4e-\	4E-\yy	4b-\	4r
4ryy	4r	4ryy	4r	8ccc\L
.	.	.	.	8aa-\J
!LO:LB:g=original	!LO:LB:g=original	!	!	!
=22	=22	=22	=22	=22
4B-/yy	4f\	4D\yy	4b-\	4ff\
4B-/yy	4f\	4D\yy	4b-\	4r
4ryy	4r	4ryy	4r	8aa-\L
.	.	.	.	8ff\J
=23	=23	=23	=23	=23
4B-/yy	4f\	4B-\yy	4a-/	4dd\
4B-/yy	4f\	4BB-/yy	4a-/	8dd\L
.	.	.	.	8b-\
4B-/yy	4f\	4BB-/yy	4a-/	8cc\
.	.	.	.	8dd\J
=24	=24	=24	=24	=24
4G;/yy	4e-\	4EE-;/yy	2g/	4ee-\
4ryy	4r	4ryy	.	4r
!LO:PB:g=original	!	!	!	!LO:LB:g=original
=:|!	=:|!	=:|!	=:|!	=:|!
*>C	*>C	*>C	*>C	*>C
*	*	*k[b-e-]	*k[b-e-]	*k[b-e-]
*M3/4	*M3/4	*M3/4	*	*M3/4
!LO:TX:a:t=Trio	!LO:TX:a:t=Trio	!LO:TX:a:t=Trio	!LO:TX:a:t=Trio	!LO:TX:a:t=Trio
4r	4ryy	4r	4r	16bb-\LL
.	.	.	.	16aan\
.	.	.	.	16gg\
.	.	.	.	16ff\JJ
=25	=25	=25	=25	=25
*	*2\right	*tremolo	*2\right	*2\right
2B-/	2f\	8BB-/L	2dd\	2ff\
.	.	8AAn/	.	.
.	.	8BB-/	.	.
.	.	8AAn/	.	.
4e-\	4g\	8BB-/	4ee-\	4gg\
.	.	8AAn/J	.	.
*	*	*Xtremolo	*	*
=26	=26	=26	=26	=26
4B-/	4f\	4BB-/	4dd\	4ff\
4BB-/	4f\	4B-\	4b-\	8dd\L
.	.	.	.	8ff\J
4r	4r	4r	4r	(16bb-\LL
.	.	.	.	16aa\
.	.	.	.	16gg\
.	.	.	.	16ff\JJ)
!	!	!LO:LB:g=original	!LO:LB:g=original	!
=27	=27	=27	=27	=27
*	*	*tremolo	*	*
2B-/	2f\	8BB-/L	2dd\	2ff\
.	.	8AAn/	.	.
.	.	8BB-/	.	.
.	.	8AAn/	.	.
4e-\	4g\	8BB-/	4ee-\	4gg\
.	.	8AAn/J	.	.
*	*	*Xtremolo	*	*
=28	=28	=28	=28	=28
4B-/	4f\	4BB-/	4dd\	4ff\
4BB-/	4f\	4B-\	4b-\	4dd\
4r	4r	4r	4r	4r
!	!LO:LB:g=original	!	!	!LO:LB:g=original
=29	=29	=29	=29	=29
!LO:N:vis=0	!LO:N:vis=0	!	!	!
1.r	1.r	8FF/L	4cc\	4ee-\
.	.	8AA/	.	.
.	.	8C/	4cc\	4ee-\
.	.	8F/J	.	.
.	.	8A\L	4cc\	4ee-\
.	.	8c\J	.	.
=30	=30	=30	=30	=30
.	.	8e-\L	2an\	2cc\
.	.	8c\	.	.
.	.	8A\	.	.
.	.	8F\	.	.
.	.	8E-\	4cc\	4ee-\
.	.	8C\J	.	.
=31	=31	=31	=31	=31
4r	4r	4BB-/	4b-\	4dd\
4r	4r	4F\	8dd\L	8ff\L
.	.	.	8cc\	8ee-\
4f\	4f\	4FF/	8b-\	8dd\
.	.	.	8f\J	8cc\J
=32	=32	=32	=32	=32
4B-/	4f\	4BB-/	2d/	4b-\
!	!	!	!	!LO:TX:b:t=8
4r	4r	4r	.	4r
!LO:LB:g=original	!	!LO:PB:g=original	!	!
=:|!|:	=:|!|:	=:|!|:	=:|!|:	=:|!|:
*>D	*>D	*>D	*>D	*>D
4r	4f\	4d\	4r	4r
=33	=33	=33	=33	=33
*tremolo	*	*	*	*
!LO:SIC:v:s=8B-/L	!	!	!LO:N:vis=00	!LO:N:vis=00
8G/L	4.f\	4.d\	0.r	0.r
!LO:SIC:v:s=8An/	!	!	!	!
8F#/	.	.	.	.
!LO:SIC:v:s=8B-/	!	!	!	!
8G/	.	.	.	.
!LO:SIC:v:s=8An/	!	!	!	!
8F#/	8g\	8e-\	.	.
!LO:SIC:v:s=8B-/	!	!	!	!
8G/	4f\	4d\	.	.
!LO:SIC:v:s=8An/J	!	!	!	!
8F#X/J	.	.	.	.
*Xtremolo	*	*	*	*
=34	=34	=34	=34	=34
*	*	*2\right	*	*
!LO:SIC:v:s=4B-/	!	!	!	!
4G/	4f\	2d\	.	.
!LO:SIC:v:s=4b-\	!	!	!	!
4g\	4b-\	.	.	.
!LO:SIC:v:s=4B-/	!	!	!	!
4G/	8dd\L	4g\	.	.
.	8b-\J	.	.	.
=35	=35	=35	=35	=35
!LO:SIC:v:s=2.B-/	!	!	!	!
2.G/	4b-\	4g\	.	.
.	4an\	4f\	.	.
.	4g\	4e-\	.	.
!	!LO:LB:g=original	!	!	!
=36	=36	=36	=36	=36
!LO:SIC:v:s=8B-/L	!	!	!	!
8G/L	8f\L	8d\L	.	.
!LO:SIC:v:s=8An/	!	!	!	!
8F#X/	8g\	8e-\	.	.
!LO:SIC:v:s=8B-/	!	!	!	!
8G/	8f\	8d\	.	.
!LO:SIC:v:s=8An/J	!	!	!	!
8F#/J	8e-\J	8c\J	.	.
!LO:SIC:v:s=4G/	!	!	!	!
4G/	4d\	4B-\	.	.
=37	=37	=37	=37	=37
!LO:N:vis=0	!LO:N:vis=0	!	!	!
1.r	1.r	8FF/L	4cc\	4ee-\
.	.	8AA/	.	.
.	.	8C/	4cc\	4ee-\
.	.	8F/J	.	.
.	.	8A\L	4cc\	4ee-\
.	.	8c\J	.	.
!	!	!LO:LB:g=original	!LO:LB:g=original	!
=38	=38	=38	=38	=38
.	.	8e-\L	2an\	2cc\
.	.	8c\	.	.
.	.	8A\	.	.
.	.	8F\	.	.
.	.	8E-\	4cc\	4ee-\
.	.	8C\J	.	.
!	!	!	!	!LO:LB:g=original
=39	=39	=39	=39	=39
4r	4r	4BB-/	4b-\	4dd\
4f\	4r	4F\	8dd\L	8ff\L
.	.	.	8cc\	8ee-\
4B-/	4f\	4FF/	8b-\	8dd\
.	.	.	8f\J	8cc\J
=40	=40	=40	=40	=40
4r	4f\	4BB-/	8b-\L	8b-\L
.	.	.	8gg\	8bb-\
4r	4r	4r	8ff\	8aa\
.	.	.	8ee-\	8gg\
4r	4r	4r	8dd\	8ff\
.	.	.	8cc\J	8ee-\J
=41	=41	=41	=41	=41
4r	4r	4BB-/	4b-\	4dd\
4r	4r	4F\	8dd\L	8ff\L
.	.	.	8cc\	8ee-\
4f\	4f\	4FF/	8b-\	8dd\
.	.	.	8f\J	8cc\J
=42	=42	=42	=42	=42
2B-/	4f\	4BB-/	4d/	4b-\
!	!	!LO:TX:b:i:t=Me&colon; Da Capo	!LO:TX:b:i:t=M&colon; Da Capo	!LO:TX:b:i:t=M&colon; Da\nCapo
.	4r	4r	4r	4r
=:|!	=:|!	=:|!	=:|!	=:|!
*-	*-	*-	*-	*-
!!!system-decoration: [(s1,s2,s3)][(s4,s5)]
!!!ENC: Berenika Jozajtis
!!!END: 2021-06-16
!!!ENC: Andrzej Kubiczek
!!!END: 2021-06-24
